X:17
T:English Duty - Tattoo ThFife.17, The
T:English Duty ThFife.17, The
T:Tattoo ThFife.17
B:Thompson, C. & Thompson, S., 'The Compleat Tutor for the Fife', London, c.1765-1780.
S:Digitised by National Library of Scotland at: https://archive.org/details/nlsmusic
Z:vmp Roger Hare, 2019.
M:3/4
L:1/8
Q:3/4=60
K:G
N:The time signature is different but this is basically the same as ThFife.25
|: GAB !trill!A3 | ABc !trill!B3 | Bcd !trill!c3 | cde !trill!d3 | gfe !trill!d3 |
cBAG AG/F/ | G6 | cBAG AG/F/ | G6 :||: AB^c !trill!d3 |
d^cd !trill!e3 | ede !trill!f3 | fef !trill!g3 | gfg !trill!a3 | gfed ed/^c/ |
d6 | cBAG AG/F/ | G6 :| "_End of the English duty."[| def !trill!g3 |]

